retroactive/svg/Nintendo - Family Computer Disk System.svg

<?xml version="1.0" encoding="UTF-8" standalone="no"?>
<svg
   xmlns:dc="http://purl.org/dc/elements/1.1/"
   xmlns:cc="http://creativecommons.org/ns#"
   xmlns:rdf="http://www.w3.org/1999/02/22-rdf-syntax-ns#"
   xmlns:svg="http://www.w3.org/2000/svg"
   xmlns="http://www.w3.org/2000/svg"
   viewBox="0 0 320 320"
   height="320"
   width="320"
   xml:space="preserve"
   version="1.1"
   id="svg2"><metadata
     id="metadata8"><rdf:RDF><cc:Work
         rdf:about=""><dc:format>image/svg+xml</dc:format><dc:type
           rdf:resource="http://purl.org/dc/dcmitype/StillImage" /></cc:Work></rdf:RDF></metadata><defs
     id="defs6"><clipPath
       id="clipPath16"
       clipPathUnits="userSpaceOnUse"><path
         id="path18"
         d="M 0,256 256,256 256,0 0,0 0,256 Z" /></clipPath><clipPath
       id="clipPath24"
       clipPathUnits="userSpaceOnUse"><path
         id="path26"
         d="M 4,184 252,184 252,68 4,68 4,184 Z" /></clipPath></defs><g
     transform="matrix(1.25,0,0,-1.25,0,320)"
     id="g10"><g
       id="g12"><g
         clip-path="url(#clipPath16)"
         id="g14"><g
           id="g20"><g
             id="g22" /><g
             id="g28"><g
               style="opacity:0.5"
               id="g30"
               clip-path="url(#clipPath24)"><g
                 id="g32"
                 transform="translate(239.1667,184)"><path
                   id="path34"
                   style="fill:#ffffff;fill-opacity:1;fill-rule:nonzero;stroke:none"
                   d="m 0,0 -222.333,0 c -7.077,0 -12.834,-5.742 -12.834,-12.8 l 0,-90.4 c 0,-7.058 5.757,-12.8 12.834,-12.8 L 0,-116 c 7.076,0 12.833,5.742 12.833,12.8 l 0,90.4 C 12.833,-5.742 7.076,0 0,0" /></g></g></g></g><g
           transform="translate(239.1667,76)"
           id="g36"><path
             id="path38"
             style="fill:#7b0000;fill-opacity:1;fill-rule:nonzero;stroke:none"
             d="m 0,0 -222.333,0 c -2.67,0 -4.834,2.149 -4.834,4.8 l 0,90.4 c 0,2.651 2.164,4.8 4.834,4.8 L 0,100 c 2.669,0 4.833,-2.149 4.833,-4.8 l 0,-90.4 C 4.833,2.149 2.669,0 0,0" /></g><path
           id="path40"
           style="fill:#660612;fill-opacity:1;fill-rule:nonzero;stroke:none"
           d="m 12,136 4,0 0,-12 -4,0 0,12 z" /><g
           transform="translate(108,136)"
           id="g42"><path
             id="path44"
             style="fill:#d9d9d9;fill-opacity:1;fill-rule:nonzero;stroke:none"
             d="m 0,0 0,24 c 0,2.209 -1.791,4 -4,4 l -80,0 c -2.209,0 -4,-1.791 -4,-4 l 0,-72 c 0,-2.209 1.791,-4 4,-4 l 84,0 124,0 c 2.209,0 4,1.791 4,4 l 0,40 c 0,2.209 -1.791,4 -4,4 L 4,-4 C 1.791,-4 0,-2.209 0,0" /></g><path
           id="path46"
           style="fill:#191919;fill-opacity:1;fill-rule:nonzero;stroke:none"
           d="m 236,104 -216,0 0,2 216,0 0,-2 z" /><path
           id="path48"
           style="fill:#191919;fill-opacity:1;fill-rule:nonzero;stroke:none"
           d="m 236,100 -216,0 0,2 216,0 0,-2 z" /><path
           id="path50"
           style="fill:#191919;fill-opacity:1;fill-rule:nonzero;stroke:none"
           d="m 40,144 -16,0 0,16 16,0 0,-16 z" /><g
           transform="translate(156,105.3406)"
           id="g52"><path
             id="path54"
             style="fill:#7a0511;fill-opacity:1;fill-rule:nonzero;stroke:none"
             d="m 0,0 c 0,-5.159 -4,-9.341 -8.933,-9.341 l -46.134,0 C -60,-9.341 -64,-5.159 -64,0 l 0,5.319 c 0,5.158 4,9.34 8.933,9.34 l 46.134,0 C -4,14.659 0,10.477 0,5.319 L 0,0 Z" /></g><g
           transform="translate(64.2399,144)"
           id="g56"><path
             id="path58"
             style="fill:#7a0511;fill-opacity:1;fill-rule:nonzero;stroke:none"
             d="m 0,0 -16.48,0 c -1.04,0 -1.882,-0.843 -1.882,-1.882 l 0,-11.996 -11.996,0 c -1.039,0 -1.882,-0.843 -1.882,-1.882 l 0,-16.48 c 0,-1.04 0.843,-1.882 1.882,-1.882 l 11.996,0 0,-11.996 c 0,-1.039 0.842,-1.882 1.882,-1.882 L 0,-48 c 1.039,0 1.882,0.843 1.882,1.882 l 0,11.996 11.996,0 c 1.039,0 1.882,0.842 1.882,1.882 l 0,16.48 c 0,1.039 -0.843,1.882 -1.882,1.882 l -11.996,0 0,11.996 C 1.882,-0.843 1.039,0 0,0" /></g><g
           transform="translate(78,128.196)"
           id="g60"><path
             id="path62"
             style="fill:#191919;fill-opacity:1;fill-rule:nonzero;stroke:none"
             d="m 0,0 -13.804,0 0,13.804 -16.392,0 0,-13.804 -13.804,0 0,-16.392 13.804,0 0,-13.804 16.392,0 0,13.804 13.804,0 L 0,0 Z" /></g><g
           transform="translate(191,108)"
           id="g64"><path
             id="path66"
             style="fill:#7a0511;fill-opacity:1;fill-rule:nonzero;stroke:none"
             d="m 0,0 c 0,6.065 -4.935,11 -11,11 -6.065,0 -11,-4.935 -11,-11 0,-6.065 4.935,-11 11,-11 6.065,0 11,4.935 11,11" /></g><g
           transform="translate(190,108)"
           id="g68"><path
             id="path70"
             style="fill:#262626;fill-opacity:1;fill-rule:nonzero;stroke:none"
             d="m 0,0 c 0,-5.523 -4.477,-10 -10,-10 -5.523,0 -10,4.477 -10,10 0,5.523 4.477,10 10,10 C -4.477,10 0,5.523 0,0" /></g><g
           transform="translate(180,118)"
           id="g72"><path
             id="path74"
             style="fill:#191919;fill-opacity:1;fill-rule:nonzero;stroke:none"
             d="m 0,0 c -5.523,0 -10,-4.477 -10,-10 0,-5.523 4.477,-10 10,-10 5.523,0 10,4.477 10,10 C 10,-4.477 5.523,0 0,0 m 0,-2 c 4.411,0 8,-3.589 8,-8 0,-4.411 -3.589,-8 -8,-8 -4.411,0 -8,3.589 -8,8 0,4.411 3.589,8 8,8" /></g><g
           transform="translate(223,108)"
           id="g76"><path
             id="path78"
             style="fill:#7a0511;fill-opacity:1;fill-rule:nonzero;stroke:none"
             d="m 0,0 c 0,6.065 -4.935,11 -11,11 -6.065,0 -11,-4.935 -11,-11 0,-6.065 4.935,-11 11,-11 6.065,0 11,4.935 11,11" /></g><g
           transform="translate(222,108)"
           id="g80"><path
             id="path82"
             style="fill:#262626;fill-opacity:1;fill-rule:nonzero;stroke:none"
             d="m 0,0 c 0,-5.523 -4.477,-10 -10,-10 -5.523,0 -10,4.477 -10,10 0,5.523 4.477,10 10,10 C -4.477,10 0,5.523 0,0" /></g><g
           transform="translate(212,118)"
           id="g84"><path
             id="path86"
             style="fill:#191919;fill-opacity:1;fill-rule:nonzero;stroke:none"
             d="m 0,0 c -5.523,0 -10,-4.477 -10,-10 0,-5.523 4.477,-10 10,-10 5.523,0 10,4.477 10,10 C 10,-4.477 5.523,0 0,0 m 0,-2 c 4.411,0 8,-3.589 8,-8 0,-4.411 -3.589,-8 -8,-8 -4.411,0 -8,3.589 -8,8 0,4.411 3.589,8 8,8" /></g><g
           transform="translate(120,108)"
           id="g88"><path
             id="path90"
             style="fill:#191919;fill-opacity:1;fill-rule:nonzero;stroke:none"
             d="m 0,0 c 0,-2.209 -1.78,-4 -3.976,-4 l -12.048,0 C -18.22,-4 -20,-2.209 -20,0 c 0,2.209 1.78,4 3.976,4 L -3.976,4 C -1.78,4 0,2.209 0,0" /></g><g
           transform="translate(148,108)"
           id="g92"><path
             id="path94"
             style="fill:#191919;fill-opacity:1;fill-rule:nonzero;stroke:none"
             d="m 0,0 c 0,-2.209 -1.78,-4 -3.976,-4 l -12.048,0 C -18.22,-4 -20,-2.209 -20,0 c 0,2.209 1.78,4 3.976,4 L -3.976,4 C -1.78,4 0,2.209 0,0" /></g><g
           transform="translate(60,120)"
           id="g96"><path
             id="path98"
             style="fill:#262626;fill-opacity:1;fill-rule:nonzero;stroke:none"
             d="m 0,0 c 0,-2.209 -1.791,-4 -4,-4 -2.209,0 -4,1.791 -4,4 0,2.209 1.791,4 4,4 2.209,0 4,-1.791 4,-4" /></g><g
           transform="translate(54.1263,104.7519)"
           id="g100"><path
             id="path102"
             style="fill:#262626;fill-opacity:1;fill-rule:nonzero;stroke:none"
             d="m 0,0 0,3.248 3.949,0 0,-3.248 1.924,0 -4,-4.752 L -2.127,0 0,0 Z" /></g><g
           transform="translate(57.8731,135.2481)"
           id="g104"><path
             id="path106"
             style="fill:#262626;fill-opacity:1;fill-rule:nonzero;stroke:none"
             d="m 0,0 0,-3.248 -3.949,0 0,3.248 -1.924,0 4,4.752 L 2.127,0 0,0 Z" /></g><g
           transform="translate(40.7519,121.8737)"
           id="g108"><path
             id="path110"
             style="fill:#262626;fill-opacity:1;fill-rule:nonzero;stroke:none"
             d="m 0,0 3.248,0 0,-3.949 -3.248,0 0,-1.924 -4.752,4 L 0,2.127 0,0 Z" /></g><g
           transform="translate(71.248,118.1269)"
           id="g112"><path
             id="path114"
             style="fill:#262626;fill-opacity:1;fill-rule:nonzero;stroke:none"
             d="m 0,0 -3.248,0 0,3.949 3.248,0 0,1.924 4.752,-4 L 0,-2.127 0,0 Z" /></g><g
           transform="translate(182,122)"
           id="g116"><path
             id="path118"
             style="fill:#191919;fill-opacity:1;fill-rule:nonzero;stroke:none"
             d="m 0,0 -4,0 c -2.2,0 -4,1.8 -4,4 l 0,0 c 0,2.2 1.8,4 4,4 L 0,8 C 2.2,8 4,6.2 4,4 L 4,4 C 4,1.8 2.2,0 0,0" /></g><g
           transform="translate(214,122)"
           id="g120"><path
             id="path122"
             style="fill:#191919;fill-opacity:1;fill-rule:nonzero;stroke:none"
             d="m 0,0 -4,0 c -2.2,0 -4,1.8 -4,4 l 0,0 c 0,2.2 1.8,4 4,4 L 0,8 C 2.2,8 4,6.2 4,4 L 4,4 C 4,1.8 2.2,0 0,0" /></g></g></g></g></svg>

<?xml version="1.0" encoding="UTF-8" standalone="no"?>
<svg
   xmlns:dc="http://purl.org/dc/elements/1.1/"
   xmlns:cc="http://creativecommons.org/ns#"
   xmlns:rdf="http://www.w3.org/1999/02/22-rdf-syntax-ns#"
   xmlns:svg="http://www.w3.org/2000/svg"
   xmlns="http://www.w3.org/2000/svg"
   viewBox="0 0 330.66626 154.66665"
   height="154.66666"
   width="330.66626"
   xml:space="preserve"
   id="svg2"
   version="1.1"><metadata
     id="metadata8"><rdf:RDF><cc:Work
         rdf:about=""><dc:format>image/svg+xml</dc:format><dc:type
           rdf:resource="http://purl.org/dc/dcmitype/StillImage" /></cc:Work></rdf:RDF></metadata><defs
     id="defs6"><clipPath
       id="clipPath18"
       clipPathUnits="userSpaceOnUse"><path
         id="path16"
         d="M 0,256 H 256 V 0 H 0 Z" /></clipPath><clipPath
       id="clipPath26"
       clipPathUnits="userSpaceOnUse"><path
         id="path24"
         d="M 4,184 H 252 V 68 H 4 Z" /></clipPath></defs><g
     transform="matrix(1.3333333,0,0,-1.3333333,-5.3333332,245.33333)"
     id="g10"><g
       id="g12"><g
         clip-path="url(#clipPath18)"
         id="g14"><g
           id="g20"><g
             id="g22" /><g
             id="g34"><g
               style="opacity:0.5"
               id="g32"
               clip-path="url(#clipPath26)"><g
                 id="g30"
                 transform="translate(239.1667,184)"><path
                   id="path28"
                   style="fill:#ffffff;fill-opacity:1;fill-rule:nonzero;stroke:none"
                   d="m 0,0 h -222.333 c -7.077,0 -12.834,-5.742 -12.834,-12.8 v -90.4 c 0,-7.058 5.757,-12.8 12.834,-12.8 H 0 c 7.076,0 12.833,5.742 12.833,12.8 v 90.4 C 12.833,-5.742 7.076,0 0,0" /></g></g></g></g><g
           transform="translate(239.1667,76)"
           id="g36"><path
             id="path38"
             style="fill:#7b0000;fill-opacity:1;fill-rule:nonzero;stroke:none"
             d="m 0,0 h -222.333 c -2.67,0 -4.834,2.149 -4.834,4.8 v 90.4 c 0,2.651 2.164,4.8 4.834,4.8 H 0 c 2.669,0 4.833,-2.149 4.833,-4.8 V 4.8 C 4.833,2.149 2.669,0 0,0" /></g><path
           id="path40"
           style="fill:#660612;fill-opacity:1;fill-rule:nonzero;stroke:none"
           d="m 12,136 h 4 v -12 h -4 z" /><g
           transform="translate(108,136)"
           id="g42"><path
             id="path44"
             style="fill:#d9d9d9;fill-opacity:1;fill-rule:nonzero;stroke:none"
             d="m 0,0 v 24 c 0,2.209 -1.791,4 -4,4 h -80 c -2.209,0 -4,-1.791 -4,-4 v -72 c 0,-2.209 1.791,-4 4,-4 H 0 124 c 2.209,0 4,1.791 4,4 v 40 c 0,2.209 -1.791,4 -4,4 H 4 C 1.791,-4 0,-2.209 0,0" /></g><path
           id="path46"
           style="fill:#191919;fill-opacity:1;fill-rule:nonzero;stroke:none"
           d="M 236,104 H 20 v 2 h 216 z" /><path
           id="path48"
           style="fill:#191919;fill-opacity:1;fill-rule:nonzero;stroke:none"
           d="M 236,100 H 20 v 2 h 216 z" /><path
           id="path50"
           style="fill:#191919;fill-opacity:1;fill-rule:nonzero;stroke:none"
           d="M 40,144 H 24 v 16 h 16 z" /><g
           transform="translate(156,105.3406)"
           id="g52"><path
             id="path54"
             style="fill:#7a0511;fill-opacity:1;fill-rule:nonzero;stroke:none"
             d="M 0,0 C 0,-5.159 -4,-9.341 -8.933,-9.341 H -55.067 C -60,-9.341 -64,-5.159 -64,0 v 5.319 c 0,5.158 4,9.34 8.933,9.34 H -8.933 C -4,14.659 0,10.477 0,5.319 Z" /></g><g
           transform="translate(64.2399,144)"
           id="g56"><path
             id="path58"
             style="fill:#7a0511;fill-opacity:1;fill-rule:nonzero;stroke:none"
             d="m 0,0 h -16.48 c -1.04,0 -1.882,-0.843 -1.882,-1.882 v -11.996 h -11.996 c -1.039,0 -1.882,-0.843 -1.882,-1.882 v -16.48 c 0,-1.04 0.843,-1.882 1.882,-1.882 h 11.996 v -11.996 c 0,-1.039 0.842,-1.882 1.882,-1.882 H 0 c 1.039,0 1.882,0.843 1.882,1.882 v 11.996 h 11.996 c 1.039,0 1.882,0.842 1.882,1.882 v 16.48 c 0,1.039 -0.843,1.882 -1.882,1.882 H 1.882 V -1.882 C 1.882,-0.843 1.039,0 0,0" /></g><g
           transform="translate(78,128.196)"
           id="g60"><path
             id="path62"
             style="fill:#191919;fill-opacity:1;fill-rule:nonzero;stroke:none"
             d="M 0,0 H -13.804 V 13.804 H -30.196 V 0 H -44 v -16.392 h 13.804 v -13.804 h 16.392 v 13.804 H 0 Z" /></g><g
           transform="translate(191,108)"
           id="g64"><path
             id="path66"
             style="fill:#7a0511;fill-opacity:1;fill-rule:nonzero;stroke:none"
             d="m 0,0 c 0,6.065 -4.935,11 -11,11 -6.065,0 -11,-4.935 -11,-11 0,-6.065 4.935,-11 11,-11 6.065,0 11,4.935 11,11" /></g><g
           transform="translate(190,108)"
           id="g68"><path
             id="path70"
             style="fill:#262626;fill-opacity:1;fill-rule:nonzero;stroke:none"
             d="m 0,0 c 0,-5.523 -4.477,-10 -10,-10 -5.523,0 -10,4.477 -10,10 0,5.523 4.477,10 10,10 C -4.477,10 0,5.523 0,0" /></g><g
           transform="translate(180,118)"
           id="g72"><path
             id="path74"
             style="fill:#191919;fill-opacity:1;fill-rule:nonzero;stroke:none"
             d="m 0,0 c -5.523,0 -10,-4.477 -10,-10 0,-5.523 4.477,-10 10,-10 5.523,0 10,4.477 10,10 C 10,-4.477 5.523,0 0,0 m 0,-2 c 4.411,0 8,-3.589 8,-8 0,-4.411 -3.589,-8 -8,-8 -4.411,0 -8,3.589 -8,8 0,4.411 3.589,8 8,8" /></g><g
           transform="translate(223,108)"
           id="g76"><path
             id="path78"
             style="fill:#7a0511;fill-opacity:1;fill-rule:nonzero;stroke:none"
             d="m 0,0 c 0,6.065 -4.935,11 -11,11 -6.065,0 -11,-4.935 -11,-11 0,-6.065 4.935,-11 11,-11 6.065,0 11,4.935 11,11" /></g><g
           transform="translate(222,108)"
           id="g80"><path
             id="path82"
             style="fill:#262626;fill-opacity:1;fill-rule:nonzero;stroke:none"
             d="m 0,0 c 0,-5.523 -4.477,-10 -10,-10 -5.523,0 -10,4.477 -10,10 0,5.523 4.477,10 10,10 C -4.477,10 0,5.523 0,0" /></g><g
           transform="translate(212,118)"
           id="g84"><path
             id="path86"
             style="fill:#191919;fill-opacity:1;fill-rule:nonzero;stroke:none"
             d="m 0,0 c -5.523,0 -10,-4.477 -10,-10 0,-5.523 4.477,-10 10,-10 5.523,0 10,4.477 10,10 C 10,-4.477 5.523,0 0,0 m 0,-2 c 4.411,0 8,-3.589 8,-8 0,-4.411 -3.589,-8 -8,-8 -4.411,0 -8,3.589 -8,8 0,4.411 3.589,8 8,8" /></g><g
           transform="translate(120,108)"
           id="g88"><path
             id="path90"
             style="fill:#191919;fill-opacity:1;fill-rule:nonzero;stroke:none"
             d="M 0,0 C 0,-2.209 -1.78,-4 -3.976,-4 H -16.024 C -18.22,-4 -20,-2.209 -20,0 c 0,2.209 1.78,4 3.976,4 H -3.976 C -1.78,4 0,2.209 0,0" /></g><g
           transform="translate(148,108)"
           id="g92"><path
             id="path94"
             style="fill:#191919;fill-opacity:1;fill-rule:nonzero;stroke:none"
             d="M 0,0 C 0,-2.209 -1.78,-4 -3.976,-4 H -16.024 C -18.22,-4 -20,-2.209 -20,0 c 0,2.209 1.78,4 3.976,4 H -3.976 C -1.78,4 0,2.209 0,0" /></g><g
           transform="translate(60,120)"
           id="g96"><path
             id="path98"
             style="fill:#262626;fill-opacity:1;fill-rule:nonzero;stroke:none"
             d="m 0,0 c 0,-2.209 -1.791,-4 -4,-4 -2.209,0 -4,1.791 -4,4 0,2.209 1.791,4 4,4 2.209,0 4,-1.791 4,-4" /></g><g
           transform="translate(54.1263,104.7519)"
           id="g100"><path
             id="path102"
             style="fill:#262626;fill-opacity:1;fill-rule:nonzero;stroke:none"
             d="M 0,0 V 3.248 H 3.949 V 0 h 1.924 l -4,-4.752 -4,4.752 z" /></g><g
           transform="translate(57.8731,135.2481)"
           id="g104"><path
             id="path106"
             style="fill:#262626;fill-opacity:1;fill-rule:nonzero;stroke:none"
             d="M 0,0 V -3.248 H -3.949 V 0 h -1.924 l 4,4.752 4,-4.752 z" /></g><g
           transform="translate(40.7519,121.8737)"
           id="g108"><path
             id="path110"
             style="fill:#262626;fill-opacity:1;fill-rule:nonzero;stroke:none"
             d="M 0,0 H 3.248 V -3.949 H 0 v -1.924 l -4.752,4 4.752,4 z" /></g><g
           transform="translate(71.248,118.1269)"
           id="g112"><path
             id="path114"
             style="fill:#262626;fill-opacity:1;fill-rule:nonzero;stroke:none"
             d="M 0,0 H -3.248 V 3.949 H 0 v 1.924 l 4.752,-4 -4.752,-4 z" /></g><g
           transform="translate(182,122)"
           id="g116"><path
             id="path118"
             style="fill:#191919;fill-opacity:1;fill-rule:nonzero;stroke:none"
             d="m 0,0 h -4 c -2.2,0 -4,1.8 -4,4 v 0 c 0,2.2 1.8,4 4,4 H 0 C 2.2,8 4,6.2 4,4 V 4 C 4,1.8 2.2,0 0,0" /></g><g
           transform="translate(214,122)"
           id="g120"><path
             id="path122"
             style="fill:#191919;fill-opacity:1;fill-rule:nonzero;stroke:none"
             d="m 0,0 h -4 c -2.2,0 -4,1.8 -4,4 v 0 c 0,2.2 1.8,4 4,4 H 0 C 2.2,8 4,6.2 4,4 V 4 C 4,1.8 2.2,0 0,0" /></g></g></g></g></svg>
